app/component-library/components/Icons/Icon/assets/clock.svg

<svg width="24" height="24" viewBox="0 0 24 24" fill="none" xmlns="http://www.w3.org/2000/svg">
<path d="M12.2812 2C6.77125 2 2.28125 6.49 2.28125 12C2.28125 17.51 6.77125 22 12.2812 22C17.7913 22 22.2812 17.51 22.2812 12C22.2812 6.49 17.7913 2 12.2812 2ZM16.6313 15.57C16.4913 15.81 16.2412 15.94 15.9812 15.94C15.8512 15.94 15.7212 15.91 15.6012 15.83L12.5013 13.98C11.7313 13.52 11.1613 12.51 11.1613 11.62V7.52C11.1613 7.11 11.5013 6.77 11.9113 6.77C12.3213 6.77 12.6613 7.11 12.6613 7.52V11.62C12.6613 11.98 12.9612 12.51 13.2712 12.69L16.3713 14.54C16.7313 14.75 16.8513 15.21 16.6313 15.57Z" fill="currentColor"/>
</svg>

<svg xmlns="http://www.w3.org/2000/svg" width="24" height="24" viewBox="0 0 24 24" fill="none"><path d="M12.281 2c-5.51 0-10 4.49-10 10s4.49 10 10 10 10-4.49 10-10-4.49-10-10-10zm4.35 13.57a.746.746 0 0 1-1.03.26l-3.1-1.85c-.77-.46-1.34-1.47-1.34-2.36v-4.1c0-.41.34-.75.75-.75s.75.34.75.75v4.1c0 .36.3.89.61 1.07l3.1 1.85c.36.21.48.67.26 1.03z" fill="currentColor"/></svg>
